src/svgs/responsive-layout.svg

<svg xmlns="http://www.w3.org/2000/svg" viewBox="0 0 24 24" width="512" height="512"><path d="M12 20H3a1 1 0 01-1-1v-1h3a2 2 0 01-2-2V5a2 2 0 012-2h14a2 2 0 012 2v2h-2V5H5v11h7zm3-11h6a1 1 0 011 1v10a1 1 0 01-1 1h-6a1 1 0 01-1-1V10a1 1 0 011-1zm5 2h-4v8h4z"/></svg>

<svg xmlns="http://www.w3.org/2000/svg" viewBox="0 0 24 24"><path d="M12,20H3a1,1,0,0,1-1-1V18H5a2,2,0,0,1-2-2V5A2,2,0,0,1,5,3H19a2,2,0,0,1,2,2V7H19V5H5V16h7ZM15,9h6a1,1,0,0,1,1,1V20a1,1,0,0,1-1,1H15a1,1,0,0,1-1-1V10A1,1,0,0,1,15,9Zm5,2H16v8h4Z"/></svg>
